X:572
T:Reel 572
M:4/4
K:Gmaj
L:1/8
 (3def |:g2 (3fed eAAc| (3BAG dG Bdef|g2 (3fed eAAd||egaf gedf:||2egab g2|ga|b2bg b2ag|bc'bg afdg| (3bc'd' bg b2ag|egdg e2e2|b2bg a2ag|bc'bg ageg| (3fgf af gedB|cedB A2|
